X: 36128
T: Scollay's
R: reel
M: 4/4
K: Eminor
E2EFG2A2|BcBA GFGA|B2E2E2G2|FGAF D2GF|
E2EFG2A2|BcBA GFGA|B2Bc BAGF|G2E2E4:|
|:efgeB2B2|g2g2B4|c2BA G2G2|FGAFD2GF|
E2EFG2A2|BABde2d2|B2Bc BAGF|G2E2E4:|

